docs/img/icon1/comma_services3.svg

<svg width="387" height="506" viewBox="0 0 387 506" fill="none" xmlns="http://www.w3.org/2000/svg">
<path d="M209.036 0H336.153C354.044 0 367.226 3.59824 375.701 10.7947C383.233 18.8907 387 31.4844 387 48.576V102.549C387 119.641 383.233 131.785 375.701 138.981C367.226 147.077 354.044 151.125 336.153 151.125H220.336C208.095 151.125 198.679 154.274 192.088 160.571C185.496 167.767 182.201 177.212 182.201 188.907V209.147H336.153C354.044 209.147 367.226 212.745 375.701 219.941C383.234 228.037 387 240.631 387 257.723V457.424C387 474.516 383.234 486.66 375.701 493.856C367.226 501.952 354.044 506 336.153 506H50.8467C32.9562 506 20.2445 501.952 12.7116 493.856C4.23718 486.66 0 474.516 0 457.424V203.749C0 135.383 19.3029 84.1084 57.9088 49.9253C95.573 16.6418 145.949 0 209.036 0Z" fill="#0A7272"/>
</svg>

<svg width="387" height="506" fill="none" xmlns="http://www.w3.org/2000/svg"><path d="M209.036 0h127.117c17.891 0 31.073 3.598 39.548 10.795C383.233 18.89 387 31.485 387 48.576v53.973c0 17.092-3.767 29.236-11.299 36.432-8.475 8.096-21.657 12.144-39.548 12.144H220.336c-12.241 0-21.657 3.149-28.248 9.446-6.592 7.196-9.887 16.641-9.887 28.336v20.24h153.952c17.891 0 31.073 3.598 39.548 10.794 7.533 8.096 11.299 20.69 11.299 37.782v199.701c0 17.092-3.766 29.236-11.299 36.432-8.475 8.096-21.657 12.144-39.548 12.144H50.847c-17.89 0-30.603-4.048-38.135-12.144C4.237 486.66 0 474.516 0 457.424V203.749c0-68.366 19.303-119.64 57.909-153.824C95.573 16.642 145.949 0 209.036 0z" fill="#0A7272"/></svg>
